vendor/shopware/storefront/Resources/app/storefront/dist/assets/icon/default/sun.svg

<svg xmlns="http://www.w3.org/2000/svg" width="24" height="24" viewBox="0 0 24 24">
  <path fill="#758CA3" fill-rule="evenodd" d="M12,20 C7.581722,20 4,16.418278 4,12 C4,7.581722 7.581722,4 12,4 C16.418278,4 20,7.581722 20,12 C20,16.418278 16.418278,20 12,20 Z M12,18 C15.3137085,18 18,15.3137085 18,12 C18,8.6862915 15.3137085,6 12,6 C8.6862915,6 6,8.6862915 6,12 C6,15.3137085 8.6862915,18 12,18 Z M12,0 C12.5522847,-1.01453063e-16 13,0.44771525 13,1 L13,2 C13,2.55228475 12.5522847,3 12,3 C11.4477153,3 11,2.55228475 11,2 L11,1 C11,0.44771525 11.4477153,1.01453063e-16 12,0 Z M12,21 C12.5522847,21 13,21.4477153 13,22 L13,23 C13,23.5522847 12.5522847,24 12,24 C11.4477153,24 11,23.5522847 11,23 L11,22 C11,21.4477153 11.4477153,21 12,21 Z M22,11 L23,11 C23.5522847,11 24,11.4477153 24,12 C24,12.5522847 23.5522847,13 23,13 L22,13 C21.4477153,13 21,12.5522847 21,12 C21,11.4477153 21.4477153,11 22,11 Z M1,11 L2,11 C2.55228475,11 3,11.4477153 3,12 C3,12.5522847 2.55228475,13 2,13 L1,13 C0.44771525,13 6.76353751e-17,12.5522847 0,12 C-6.76353751e-17,11.4477153 0.44771525,11 1,11 Z M20.4852814,3.51471863 C20.8758057,3.90524292 20.8758057,4.5384079 20.4852814,4.92893219 L19.7781746,5.63603897 C19.3876503,6.02656326 18.7544853,6.02656326 18.363961,5.63603897 C17.9734367,5.24551468 17.9734367,4.6123497 18.363961,4.22182541 L19.0710678,3.51471863 C19.4615921,3.12419433 20.0947571,3.12419433 20.4852814,3.51471863 Z M5.63603897,18.363961 C6.02656326,18.7544853 6.02656326,19.3876503 5.63603897,19.7781746 L4.92893219,20.4852814 C4.5384079,20.8758057 3.90524292,20.8758057 3.51471863,20.4852814 C3.12419433,20.0947571 3.12419433,19.4615921 3.51471863,19.0710678 L4.22182541,18.363961 C4.6123497,17.9734367 5.24551468,17.9734367 5.63603897,18.363961 Z M19.7781746,18.363961 L20.4852814,19.0710678 C20.8758057,19.4615921 20.8758057,20.0947571 20.4852814,20.4852814 C20.0947571,20.8758057 19.4615921,20.8758057 19.0710678,20.4852814 L18.363961,19.7781746 C17.9734367,19.3876503 17.9734367,18.7544853 18.363961,18.363961 C18.7544853,17.9734367 19.3876503,17.9734367 19.7781746,18.363961 Z M4.92893219,3.51471863 L5.63603897,4.22182541 C6.02656326,4.6123497 6.02656326,5.24551468 5.63603897,5.63603897 C5.24551468,6.02656326 4.6123497,6.02656326 4.22182541,5.63603897 L3.51471863,4.92893219 C3.12419433,4.5384079 3.12419433,3.90524292 3.51471863,3.51471863 C3.90524292,3.12419433 4.5384079,3.12419433 4.92893219,3.51471863 Z"/>
</svg>

<svg xmlns="http://www.w3.org/2000/svg" width="24" height="24" viewBox="0 0 24 24"><path fill="#758CA3" fill-rule="evenodd" d="M12 20c-4.4183 0-8-3.5817-8-8s3.5817-8 8-8 8 3.5817 8 8-3.5817 8-8 8zm0-2c3.3137 0 6-2.6863 6-6s-2.6863-6-6-6-6 2.6863-6 6 2.6863 6 6 6zm0-18c.5523 0 1 .4477 1 1v1c0 .5523-.4477 1-1 1s-1-.4477-1-1V1c0-.5523.4477-1 1-1zm0 21c.5523 0 1 .4477 1 1v1c0 .5523-.4477 1-1 1s-1-.4477-1-1v-1c0-.5523.4477-1 1-1zm10-10h1c.5523 0 1 .4477 1 1s-.4477 1-1 1h-1c-.5523 0-1-.4477-1-1s.4477-1 1-1zM1 11h1c.5523 0 1 .4477 1 1s-.4477 1-1 1H1c-.5523 0-1-.4477-1-1s.4477-1 1-1zm19.4853-7.4853c.3905.3905.3905 1.0237 0 1.4142l-.7071.7071c-.3905.3906-1.0237.3906-1.4142 0-.3906-.3905-.3906-1.0237 0-1.4142l.707-.707c.3906-.3906 1.0238-.3906 1.4143 0zM5.636 18.364c.3906.3905.3906 1.0237 0 1.4142l-.707.707c-.3906.3906-1.0238.3906-1.4143 0-.3905-.3904-.3905-1.0236 0-1.4141l.7071-.7071c.3905-.3906 1.0237-.3906 1.4142 0zm14.1422 0 .707.707c.3906.3906.3906 1.0238 0 1.4143-.3904.3905-1.0236.3905-1.4141 0l-.7071-.7071c-.3906-.3905-.3906-1.0237 0-1.4142.3905-.3906 1.0237-.3906 1.4142 0zM4.9289 3.5147l.7071.7071c.3906.3905.3906 1.0237 0 1.4142-.3905.3906-1.0237.3906-1.4142 0l-.707-.707c-.3906-.3906-.3906-1.0238 0-1.4143.3904-.3905 1.0236-.3905 1.4141 0z"/></svg>
